_includes/icons/color-png.svg

<svg fill="#666" height="50" viewBox="0 0 48 48" width="50" xmlns="http://www.w3.org/2000/svg"><path d="m40 45h-32v-42h22l10 10z" fill="#3f51b5"/><g fill="#e8eaf6"><path d="m37.5 14h-9.5v-9.5z"/><path d="m14.808594 29.5v3.5h-2.007813v-9.953125h3.390625c.984375 0 1.769532.304688 2.355469.917969.585938.609375.878906 1.402344.878906 2.378906 0 .972656-.292968 1.742188-.871093 2.308594s-1.378907.847656-2.40625.847656zm0-1.675781h1.382812c.382813 0 .679688-.125.886719-.375.210938-.25.316406-.613281.316406-1.09375 0-.496094-.109375-.890625-.320312-1.1875-.214844-.292969-.503906-.441406-.863281-.445313h-1.402344z"/><path d="m27.722656 33h-2.007812l-2.941406-6.527344v6.527344h-2.007813v-9.953125h2.007813l2.945312 6.535156v-6.535156h2.003906z"/><path d="m36.105469 31.871094c-.386719.417969-.863281.734375-1.425781.949219-.566407.210937-1.179688.316406-1.851563.316406-1.144531 0-2.03125-.355469-2.664062-1.0625-.636719-.710938-.960938-1.738281-.980469-3.09375v-1.792969c0-1.371094.300781-2.425781.898437-3.167969.601563-.738281 1.476563-1.109375 2.621094-1.109375 1.082031 0 1.898438.265625 2.445313.800782.550781.53125.867187 1.367187.953125 2.507812h-1.953125c-.054688-.632812-.1875-1.066406-.398438-1.296875-.207031-.226562-.535156-.34375-.984375-.34375-.542969 0-.9375.199219-1.179687.59375-.246094.398438-.375 1.027344-.386719 1.894531v1.804688c0 .90625.136719 1.566406.410156 1.980469.269531.410156.714844.617187 1.335938.617187.394531 0 .714843-.078125.960937-.238281l.179688-.125v-1.824219h-1.40625v-1.515625h3.421875v4.105469z"/></g></svg>

<svg xmlns="http://www.w3.org/2000/svg" viewBox="0 0 48 48" width="50" height="50" fill="#666"><path d="M 40 45 L 8 45 L 8 3 L 30 3 L 40 13 Z" fill="#3f51b5"/><path d="M 37.5 14 L 28 14 L 28 4.5 Z" fill="#e8eaf6"/><path d="M 14.808594 29.5 L 14.808594 33 L 12.800781 33 L 12.800781 23.046875 L 16.191406 23.046875 C 17.175781 23.046875 17.960938 23.351563 18.546875 23.964844 C 19.132813 24.574219 19.425781 25.367188 19.425781 26.34375 C 19.425781 27.316406 19.132813 28.085938 18.554688 28.652344 C 17.976563 29.21875 17.175781 29.5 16.148438 29.5 Z M 14.808594 27.824219 L 16.191406 27.824219 C 16.574219 27.824219 16.871094 27.699219 17.078125 27.449219 C 17.289063 27.199219 17.394531 26.835938 17.394531 26.355469 C 17.394531 25.859375 17.285156 25.464844 17.074219 25.167969 C 16.859375 24.875 16.570313 24.726563 16.210938 24.722656 L 14.808594 24.722656 Z" fill="#e8eaf6"/><path d="M 27.722656 33 L 25.714844 33 L 22.773438 26.472656 L 22.773438 33 L 20.765625 33 L 20.765625 23.046875 L 22.773438 23.046875 L 25.71875 29.582031 L 25.71875 23.046875 L 27.722656 23.046875 Z" fill="#e8eaf6"/><path d="M 36.105469 31.871094 C 35.71875 32.289063 35.242188 32.605469 34.679688 32.820313 C 34.113281 33.03125 33.5 33.136719 32.828125 33.136719 C 31.683594 33.136719 30.796875 32.78125 30.164063 32.074219 C 29.527344 31.363281 29.203125 30.335938 29.183594 28.980469 L 29.183594 27.1875 C 29.183594 25.816406 29.484375 24.761719 30.082031 24.019531 C 30.683594 23.28125 31.558594 22.910156 32.703125 22.910156 C 33.785156 22.910156 34.601563 23.175781 35.148438 23.710938 C 35.699219 24.242188 36.015625 25.078125 36.101563 26.21875 L 34.148438 26.21875 C 34.09375 25.585938 33.960938 25.152344 33.75 24.921875 C 33.542969 24.695313 33.214844 24.578125 32.765625 24.578125 C 32.222656 24.578125 31.828125 24.777344 31.585938 25.171875 C 31.339844 25.570313 31.210938 26.199219 31.199219 27.066406 L 31.199219 28.871094 C 31.199219 29.777344 31.335938 30.4375 31.609375 30.851563 C 31.878906 31.261719 32.324219 31.46875 32.945313 31.46875 C 33.339844 31.46875 33.660156 31.390625 33.90625 31.230469 L 34.085938 31.105469 L 34.085938 29.28125 L 32.679688 29.28125 L 32.679688 27.765625 L 36.101563 27.765625 L 36.101563 31.871094 Z" fill="#e8eaf6"/></svg>
